packages/kaspersky-hexa-ui-icons/src/iconsSVGs/32/HandPouchBagSavings.svg

<svg width="32" height="32" viewBox="0 0 32 32" fill="none" xmlns="http://www.w3.org/2000/svg">
<path fill-rule="evenodd" clip-rule="evenodd" d="M12 2C11.6786 2 11.3767 2.15452 11.1888 2.41529C11.0008 2.67606 10.9497 3.01128 11.0513 3.31623L11.7674 5.46438C10.4872 6.11584 8.92226 7.19986 7.61569 8.72421C5.98133 10.631 4.72662 13.2614 5.00336 16.583C5.08613 17.5765 5.44148 18.7134 5.94131 19.7223L4.94294 19.407C3.77444 19.038 2.53666 19.7303 2.23946 20.9191C2.00608 21.8526 2.42864 22.8265 3.2698 23.2938L9.2492 26.6157C10.8833 27.5236 12.7219 28 14.5913 28H20.0371C20.546 28 21.0502 28.0971 21.5227 28.2861L24.8044 29.5988C25.7448 29.975 26.818 29.5887 27.303 28.6995L29.4007 24.8537C29.9283 23.8864 29.5742 22.6745 28.6088 22.1435L25.5926 20.4847C26.3613 19.3242 26.8909 17.851 26.9965 16.583C27.2733 13.2614 26.0186 10.631 24.3842 8.72421C23.0777 7.1999 21.5128 6.11589 20.2326 5.46444L20.9487 3.31623C21.0503 3.01128 20.9992 2.67606 20.8113 2.41529C20.6233 2.15452 20.3215 2 20 2H12ZM23.8324 19.5165C24.4541 18.6356 24.9206 17.4115 25.0034 16.417C25.2266 13.7386 24.2313 11.619 22.8657 10.0258C21.5533 8.49463 19.9218 7.48183 18.8009 7H13.199C12.0781 7.48183 10.4466 8.49463 9.13421 10.0258C7.76859 11.619 6.77331 13.7386 6.99646 16.417C7.06277 17.2129 7.40463 18.2661 7.91594 19.1812C8.16817 19.6327 8.44535 20.0208 8.72197 20.3118C9.00587 20.6105 9.24288 20.7585 9.40633 20.813C9.42782 20.8202 9.44891 20.828 9.46957 20.8364L13.0282 21.9602C13.1117 21.9866 13.1987 22 13.2862 22H15.9173C15.963 22 16 21.9629 16 21.9172C16 21.8768 15.9708 21.8423 15.9309 21.8356L11.7404 21.1372C10.7361 20.9698 10 20.1009 10 19.0828C10 17.9325 10.9325 17 12.0828 17H15V16.5392C14.7206 16.481 14.4752 16.4004 14.2586 16.3072C13.8901 16.1485 13.6107 15.9496 13.4868 15.8613C13.4672 15.8473 13.4513 15.836 13.4398 15.8282C12.9823 15.5188 12.8623 14.8971 13.1717 14.4396C13.4812 13.9822 14.1028 13.8622 14.5603 14.1716C14.603 14.2005 14.6408 14.2269 14.676 14.2516C14.7996 14.338 14.891 14.4019 15.0495 14.4702C15.236 14.5505 15.5317 14.6367 16.0001 14.6367C16.3333 14.6367 16.5709 14.6123 16.7373 14.5758C16.8603 14.5488 17.0333 14.4919 17.043 14.332C17.05 14.2168 16.9677 14.1437 16.8768 14.1227C16.8065 14.1065 16.717 14.0909 16.6036 14.0768C16.4372 14.0562 16.2621 14.0432 16.0547 14.0279L15.9249 14.0182C15.4453 13.9821 14.7148 13.9195 14.1203 13.5754C13.7926 13.3858 13.4919 13.1052 13.2921 12.7051C13.0964 12.3132 13.0322 11.8761 13.0572 11.4227C13.0604 11.3646 13.0686 11.3069 13.0819 11.2503C13.2509 10.5263 13.6739 9.99652 14.2438 9.68012C14.4871 9.54502 14.7436 9.45588 15 9.40034V9C15 8.44772 15.4477 8 16 8C16.5523 8 17 8.44772 17 9V9.48449C17.6328 9.6451 18.215 9.90884 18.6031 10.2022C19.0436 10.5353 19.1308 11.1624 18.7978 11.603C18.4647 12.0435 17.8376 12.1307 17.397 11.7977C17.1547 11.6145 16.4795 11.3424 15.836 11.3231C15.5286 11.3139 15.3263 11.3667 15.2147 11.4287C15.0313 11.5078 15.0495 11.7422 15.1602 11.832C15.2091 11.8717 15.2763 11.9153 15.4522 11.95C15.6266 11.9843 15.8302 12.0054 16.0753 12.0239C16.1172 12.0271 16.1615 12.0302 16.2078 12.0335C16.6312 12.0634 17.2249 12.1055 17.711 12.2888C18.0102 12.4016 18.3402 12.59 18.5971 12.9175C18.8605 13.2532 18.982 13.6518 18.9992 14.068C19.0285 14.7774 18.8726 15.5523 18.189 16.0777C17.8468 16.3408 17.4364 16.4859 17 16.5619V17H19C19.1685 17 19.3343 17.0426 19.4819 17.1238L23.8324 19.5165ZM13.7208 5L13.3874 4H18.6126L18.2793 5H13.7208ZM12 19.0828C12 19.0371 12.0371 19 12.0828 19H18.7432L27.6449 23.896L25.5472 27.7418L22.2654 26.4291C21.5567 26.1457 20.8004 26 20.0371 26H14.5913C13.0618 26 11.5575 25.6102 10.2205 24.8674L4.24108 21.5455C4.19101 21.5177 4.16586 21.4597 4.17975 21.4042C4.19744 21.3334 4.27112 21.2922 4.34068 21.3141L12.4259 23.8674C12.7043 23.9553 12.9944 24 13.2862 24H15.9173C17.0675 24 18 23.0675 18 21.9172C18 20.8991 17.2639 20.0302 16.2597 19.8628L12.0692 19.1644C12.0293 19.1577 12 19.1232 12 19.0828Z" fill="black"/>
</svg>

<svg xmlns="http://www.w3.org/2000/svg" width="32" height="32" fill="none" viewBox="0 0 32 32"><path fill="#000" fill-rule="evenodd" d="M12 2a1 1 0 0 0-.9487 1.3162l.7161 2.1482c-1.2802.6514-2.8451 1.7355-4.1517 3.2598-1.6344 1.9068-2.889 4.5372-2.6123 7.8588.0827.9935.438 2.1304.938 3.1393l-.9985-.3153c-1.1685-.369-2.4062.3233-2.7034 1.5121a2.1265 2.1265 0 0 0 1.0303 2.3747l5.9794 3.3219A11 11 0 0 0 14.5913 28h5.4458a4 4 0 0 1 1.4856.2861l3.2817 1.3127c.9404.3762 2.0136-.0101 2.4986-.8993l2.0977-3.8458c.5276-.9673.1735-2.1792-.7919-2.7102l-3.0162-1.6588c.7687-1.1605 1.2983-2.6337 1.4039-3.9017.2768-3.3216-.9779-5.952-2.6123-7.8588C23.0777 7.2 21.5128 6.116 20.2326 5.4644l.7161-2.1482A1 1 0 0 0 20 2zm11.8324 17.5165c.6217-.8809 1.0882-2.105 1.171-3.0995.2232-2.6784-.7721-4.798-2.1377-6.3912C21.5533 8.4946 19.9218 7.4818 18.8009 7H13.199c-1.1209.4818-2.7524 1.4946-4.0648 3.0258-1.3656 1.5932-2.3609 3.7128-2.1377 6.3912.0663.7959.4081 1.8491.9194 2.7642.2523.4515.5294.8396.806 1.1306.284.2987.521.4467.6844.5012q.0323.0108.0633.0234l3.5586 1.1238a.86.86 0 0 0 .258.0398h2.6311a.0828.0828 0 0 0 .0136-.1644l-4.1905-.6984C10.7361 20.9698 10 20.1009 10 19.0828 10 17.9325 10.9325 17 12.0828 17H15v-.4608a3.86 3.86 0 0 1-.7414-.232c-.3685-.1587-.6479-.3576-.7718-.4459a3 3 0 0 0-.047-.0331c-.4575-.3094-.5775-.9311-.2681-1.3886.3095-.4574.9311-.5774 1.3886-.268.0427.0289.0805.0553.1157.08.1236.0864.215.1503.3735.2186.1865.0803.4822.1665.9506.1665.3332 0 .5708-.0244.7372-.0609.123-.027.296-.0839.3057-.2438.007-.1152-.0753-.1883-.1662-.2093a2.7 2.7 0 0 0-.2732-.0459c-.1664-.0206-.3415-.0336-.5489-.0489l-.1298-.0097c-.4796-.0361-1.2101-.0987-1.8046-.4428-.3277-.1896-.6284-.4702-.8282-.8703-.1957-.3919-.2599-.829-.2349-1.2824a1 1 0 0 1 .0247-.1724c.169-.724.592-1.2538 1.1619-1.5702.2433-.135.4998-.2242.7562-.2798V9c0-.5523.4477-1 1-1s1 .4477 1 1v.4845c.6328.1606 1.215.4243 1.6031.7177.4405.3331.5277.9602.1947 1.4008-.3331.4405-.9602.5277-1.4008.1947-.2423-.1832-.9175-.4553-1.561-.4746-.3074-.0092-.5097.0436-.6213.1056-.1834.0791-.1652.3135-.0545.4033.0489.0397.1161.0833.292.118.1744.0343.378.0554.6231.0739q.063.0047.1325.0096c.4234.0299 1.0171.072 1.5032.2553.2992.1128.6292.3012.8861.6287.2634.3357.3849.7343.4021 1.1505.0293.7094-.1266 1.4843-.8102 2.0097-.3422.2631-.7526.4082-1.189.4842V17h2a1 1 0 0 1 .4819.1238zM13.7208 5l-.3334-1h5.2252l-.3333 1zM12 19.0828A.083.083 0 0 1 12.0828 19h6.6604l8.9017 4.896-2.0977 3.8458-3.2818-1.3127A6 6 0 0 0 20.0371 26h-5.4458a9 9 0 0 1-4.3708-1.1326l-5.9794-3.3219a.1265.1265 0 0 1 .0996-.2314l8.0852 2.5533c.2784.0879.5685.1326.8603.1326h2.6311C17.0675 24 18 23.0675 18 21.9172c0-1.0181-.7361-1.887-1.7403-2.0544l-4.1905-.6984A.083.083 0 0 1 12 19.0828"/></svg>
